ix/arrow-right-1_bulk.svg

<svg viewBox="0 0 24 24" fill="none" xmlns="http://www.w3.org/2000/svg" height="1em" width="1em">
  <path d="M6 9.32993V14.6699C6 17.9899 8.35 19.3399 11.22 17.6899L12.5 16.9499C12.81 16.7699 13 16.4399 13 16.0799V7.91993C13 7.55993 12.81 7.22993 12.5 7.04993L11.22 6.30992C8.35 4.65992 6 6.00993 6 9.32993Z" fill="#292D32"/>
  <path opacity="0.4" d="M14 8.79006V15.2201C14 15.6101 14.42 15.8501 14.75 15.6501L15.85 15.0101C18.72 13.3601 18.72 10.6401 15.85 8.99006L14.75 8.35006C14.42 8.16006 14 8.40006 14 8.79006Z" fill="#292D32"/>
</svg>

<svg viewBox="0 0 24 24" fill="none" xmlns="http://www.w3.org/2000/svg" height="1em" width="1em">
  <path d="M6 9.33v5.34c0 3.32 2.35 4.67 5.22 3.02l1.28-.74c.31-.18.5-.51.5-.87V7.92c0-.36-.19-.69-.5-.87l-1.28-.74C8.35 4.66 6 6.01 6 9.33Z" fill="#292D32"/>
  <path opacity=".4" d="M14 8.79v6.43c0 .39.42.63.75.43l1.1-.64c2.87-1.65 2.87-4.37 0-6.02l-1.1-.64a.503.503 0 0 0-.75.44Z" fill="#292D32"/>
</svg>
